usr/share/icons/biglinux-icons-material-dark/22/actions/mail-mark-unread.svg

<svg version="1.1" viewBox="0 0 22 22" xmlns="http://www.w3.org/2000/svg">
 <defs>
  <style id="current-color-scheme" type="text/css">.ColorScheme-Text {
        color:#dedede;
      }</style>
 </defs>
 <path d="m5 4c-1.662 0-3 1.338-3 3v8c0 1.662 1.338 3 3 3h12c1.662 0 3-1.338 3-3v-8c0-1.662-1.338-3-3-3h-12zm0 1h12c1.0692 0 1.9288 0.83294 1.9883 1.8867l-6.1289 4.6602c-1.0302 0.78348-2.6886 0.78347-3.7188 0l-6.1289-4.6602c0.059506-1.0538 0.9191-1.8867 1.9883-1.8867zm-2 3.1094 3.8008 2.8906-3.8008 2.8887v-5.7793zm16 0.0019531v5.7773l-3.7969-2.8887 3.7969-2.8887zm-11.391 3.5039 0.7207 0.54883c1.4653 1.1144 3.8764 1.1144 5.3418 0l0.71875-0.54687 4.5977 3.4961c-0.059506 1.0538-0.9191 1.8867-1.9883 1.8867h-12c-1.0692 0-1.9288-0.83294-1.9883-1.8867l4.5977-3.498z" class="ColorScheme-Text" fill="currentColor"/>
</svg>

<svg xmlns="http://www.w3.org/2000/svg" viewBox="0 0 22 22">
<defs>
<style id="current-color-scheme" type="text/css">
.ColorScheme-Text{color:#dedede}
</style>
</defs>
<path fill="currentColor" d="M5 4C3.338 4 2 5.338 2 7v8c0 1.662 1.338 3 3 3h12c1.662 0 3-1.338 3-3V7c0-1.662-1.338-3-3-3zm0 1h12a1.99 1.99 0 0 1 1.988 1.887l-6.129 4.66c-1.03.783-2.688.783-3.718 0l-6.13-4.66A1.99 1.99 0 0 1 5 5M3 8.11 6.8 11 3 13.889zm16 .001v5.778L15.203 11zM7.609 11.615l.72.55c1.466 1.113 3.877 1.113 5.343 0l.718-.548 4.598 3.496A1.99 1.99 0 0 1 17 17H5a1.99 1.99 0 0 1-1.989-1.887z" class="ColorScheme-Text"/>
</svg>
